!!!COM: Igor (Fyodorovich) Stravinsky
!!!OTL: [T376_Str-21/36/[66]1-12]
**kern	**dynam	**kern	**dynam	**kern	**dynam
*grp:A	*grp:A	*grp:A	*grp:A	*grp:B	*grp:B
*part3	*	*part2	*	*part1	*part1
*staff3	*	*staff2	*	*staff1	*
*I"Bassoon	*	*I"Clarinet in A	*	*I"Flute	*
*I'Bsn.	*	*I'Cl. in A	*	*I'Fl.	*
*clefF4	*	*clefG2	*	*clefG2	*
*	*	*ITrd2c3	*	*	*
*k[]	*	*k[f#c#g#]	*	*k[]	*
*M2/4	*	*M2/4	*	*M2/4	*
!!LO:REH:t=66
=92	=92	=92	=92	=92	=92
!	!	!	!	!LO:TX:t=[[quarter]=116]	!
!LO:TX:b:i:t=stacc. e leggiero	!LO:DY:ed=brack	!LO:TX:b:i:t=leggiero	!LO:DY:ed=brack	!LO:TX:a:i:t=Solo espressivo	!LO:DY:ed=brack
8ryy	4ryy	16ryy	4ryy	4.g	mp
.	.	16ryy	.	.	.
8ryy	.	16ryy	.	.	.
.	.	16ryy	.	.	.
8ryy	.	4ryy	.	.	.
8ryy	.	.	.	[8a-X^	.
=93	=93	=93	=93	=93	=93
8ryy	.	8ryy	.	4a-]	.
8ryy	.	8ryy	.	.	.
8ryy	.	16ryy	.	(4b-XTT	.
.	.	16ryy	.	.	.
8ryy	.	8ryy	.	.	.
=94	=94	=94	=94	=94	=94
8ryy	.	16ryy	.	4.cc)	.
.	.	16ryy	.	.	.
8ryy	.	16ryy	.	.	.
.	.	16ryy	.	.	.
8ryy	.	4ryy	.	.	.
8ryy	.	.	.	[8cc^	.
=95	=95	=95	=95	=95	=95
8ryy	.	8ryy	.	4cc]	.
8ryy	.	8ryy	.	.	.
8ryy	.	16ryy	.	(4dd-XTT	.
.	.	16ryy	.	.	.
8ryy	.	8ryy	.	.	.
!!linebreak:original
=96	=96	=96	=96	=96	=96
8ryy	.	16ryy	.	4.ee-X)	.
.	.	16ryy	.	.	.
8ryy	.	16ryy	.	.	.
.	.	16ryy	.	.	.
8ryy	.	4ryy	.	.	.
8ryy	.	.	.	([8eee-X^	.
=97	=97	=97	=97	=97	=97
8ryy	.	8ryy	.	4eee-X]	.
8ryy	.	8ryy	.	.	.
8ryy	.	16ryy	.	4ccc)	.
.	.	16ryy	.	.	.
8ryy	.	8ryy	.	.	.
=98	=98	=98	=98	=98	=98
8ryy	.	16ryy	.	4.dd-X	.
.	.	16ryy	.	.	.
8ryy	.	16ryy	.	.	.
.	.	16ryy	.	.	.
8ryy	.	4ryy	.	.	.
8ryy	.	.	.	([8ddd-X^	.
=99	=99	=99	=99	=99	=99
8ryy	.	8ryy	.	4ddd-X]	.
8ryy	.	8ryy	.	.	.
8ryy	.	16ryy	.	4bb-X)	.
.	.	16ryy	.	.	.
8ryy	.	8ryy	.	.	.
!!linebreak:original
=100	=100	=100	=100	=100	=100
8ryy	.	16ryy	.	8.ccL	.
.	.	16ryy	.	.	.
8ryy	.	16ryy	.	.	.
.	.	16ryy	.	16dd-X'Jk	.
8ryy	.	4ryy	.	16ee-X'LL	.
.	.	.	.	16ff'	.
8ryy	.	.	.	16gg'	.
.	.	.	.	16aa-X'JJ	.
=101	=101	=101	=101	=101	=101
8ryy	.	8ryy	.	8bb-X'L	.
8ryy	.	8ryy	.	(8ccJ	<
8ryy	.	16ryy	.	8dd-X'L)	[
.	.	16ryy	.	.	.
8ryy	.	8ryy	.	(16cccL	.
.	.	.	.	16bb-JJ)	.
=102	=102	=102	=102	=102	=102
8ryy	.	16ryy	.	8aa-XL	.
.	.	16ryy	.	.	.
8ryy	.	16ryy	.	(8b-XJ	<
.	.	16ryy	.	.	.
8ryy	.	4ryy	.	8cc'L)	[
8ryy	.	.	.	(16bb-XL	.
.	.	.	.	16aa-JJ)	.
=103	=103	=103	=103	=103	=103
8ryy	.	8ryy	.	8ggL	.
8ryy	.	8ryy	.	(8a-XJ	<
8ryy	.	16ryy	.	8aa-X'L)	[
.	.	16ryy	.	.	.
8ryy	.	8ryy	.	8ff'J	.
=	=	=	=	=	=
*-	*-	*-	*-	*-	*-
!!!system-decoration: [(s1,s2,s3)]
!!!RDF**kern: i = editorial accidental
!!!RDF**kern: j = editorial accidental, bracket
!!!RDF**kern: Z = editorial accidental, parentheses
!!!EED: Rafael Laurindo
!!!EEV: 2021/07/22 
!!!EED2: Daniel Wright
!!!EEV2: 2022/02/04
